docs/.gitbook/assets/icon-tag-16@light.svg

<svg width="32" height="32" viewBox="0 0 16 16" fill="none" xmlns="http://www.w3.org/2000/svg">
<rect x="0" y="0" width="16" height="16" fill="#fff"/>
<path fill-rule="evenodd" clip-rule="evenodd" d="M7.2938 1.21967C7.43445 1.07902 7.62522 1 7.82413 1H12.25C13.7688 1 15 2.23122 15 3.75V8.17587C15 8.37478 14.921 8.56555 14.7803 8.7062L9.33356 14.153C8.20418 15.2823 6.3731 15.2823 5.24372 14.153L1.84703 10.7563C0.717654 9.6269 0.717656 7.79581 1.84703 6.66644L7.2938 1.21967ZM8.13479 2.5L2.9077 7.7271C2.3641 8.27069 2.3641 9.15203 2.90769 9.69562L6.30438 13.0923C6.84797 13.6359 7.72931 13.6359 8.2729 13.0923L13.5 7.86521V3.75C13.5 3.05964 12.9404 2.5 12.25 2.5H8.13479ZM10.25 5C10.25 4.58579 10.5858 4.25 11 4.25H11.01C11.4242 4.25 11.76 4.58579 11.76 5C11.76 5.41421 11.4242 5.75 11.01 5.75H11C10.5858 5.75 10.25 5.41421 10.25 5Z" fill="#000"/>
</svg>

<svg xmlns="http://www.w3.org/2000/svg" width="32" height="32" fill="none" viewBox="0 0 16 16"><path fill="#fff" d="M0 0h16v16H0z"/><path fill="#000" fill-rule="evenodd" d="M7.294 1.22a.75.75 0 0 1 .53-.22h4.426A2.75 2.75 0 0 1 15 3.75v4.426a.75.75 0 0 1-.22.53l-5.446 5.447a2.89 2.89 0 0 1-4.09 0l-3.397-3.397a2.89 2.89 0 0 1 0-4.09zm.84 1.28L2.909 7.727a1.39 1.39 0 0 0 0 1.969l3.396 3.396a1.39 1.39 0 0 0 1.969 0L13.5 7.865V3.75c0-.69-.56-1.25-1.25-1.25zM10.25 5a.75.75 0 0 1 .75-.75h.01a.75.75 0 0 1 0 1.5H11a.75.75 0 0 1-.75-.75" clip-rule="evenodd"/></svg>
